!!!COM: Bach, Johann Sebastian
!!!OPR: Joh. Seb. Bachs vierstimmige Choralgesänge
!!!XEN: Four-part Chorales
!!!OTL: 169. Warum sollt' ich mich denn grämen
!!!SCT: BWV 422
!!!SCA: Thematisch-systematisches Verzeichnis der musikalischen Werke Johann Sebastian Bach: Bach-Werke-Verzeichnis (Schmieder)
!!!YOR: Bach Gesellschaft Edition xxxix
!!!ENC: Steven Rasmussen
!!!CDT: 1685/3//-1750/7/28/
!!!OCY: Deutschland
!!!YEC: Copyright (c) 1994, 2000 Center for Computer Assisted Research in the Humanities
!!!YEM: Rights to all derivative editions reserved
!!!YEN: United States of America
**kern	**kern	**kern	**kern	**silbe
*I:[BASSO]	*I:[TENORE]	*I:[ALTO]	*I:[SOPRANO]	*I:[SOPRANO]
*clefF4	*clefGv2	*clefG2	*clefG2	*
*k[]	*k[]	*k[]	*k[]	*
*C:	*C:	*C:	*C:	*
*M4/4	*M4/4	*M4/4	*M4/4	*
=1-	=1-	=1-	=1-	=1-
8CL	4c	8eL	4g	Wa-
8DJ	.	8fJ	.	.
8EL	4c	8gL	4g	-rum
8CJ	.	8eJ	.	.
4.F	4c	8eL	4a	sollt'
.	.	8dJ	.	.
.	8BL	8dL	4g	ich
8E	8cJ	8gJ	.	.
=2	=2	=2	=2	=2
4D	4f	4f	8aL	mich
.	.	.	8bJ	.
8EL	4e	4g	4cc	denn
8FJ	.	.	.	.
2G	8dL	2g	4cc	grÃ¤-
.	8e	.	.	.
.	8f	.	4b	.
.	16gL	.	.	.
.	16fJJ	.	.	.
=3	=3	=3	=3	=3
2C;	2e;	2g;	2cc;	-men?
4G	4B	8gL	4dd	Hab'
.	.	8fJ	.	.
4G#	4B	4e	4ee	ich
=4	=4	=4	=4	=4
2A;	2A;	2e;	2cc;	doch
4E	4G	4e	8bL	Chri-
.	.	.	8ccJ	.
8BBL	4G	4d	4dd	-stum
8CJ	.	.	.	.
=5	=5	=5	=5	=5
2D;	2F#;	2d;	2a;	noch,
4BB	4F#	4d	4dd	wer
4E	4G	4e	4dd	will
=6	=6	=6	=6	=6
8EL	8GL	8eL	4cc	mir
8F#J	8AJ	8dJ	.	.
8GL	8BL	8dL	4b	den
8BBJ	8dJ	8gJ	.	.
8CL	4e	4g	[4a	neh-
8AAJ	.	.	.	.
4D	16ALL	4f#	8.aL]	.
.	16BJ	.	.	.
.	8cJ	.	.	.
.	.	.	16gJk	.
=7	=7	=7	=7	=7
2GG;	2B;	2d;	2g;	-men?
8EL	4G	8gL	4cc	Wer
8DJ	.	8f#J	.	.
8EL	4e	8gL	4cc	will
8F#J	.	8aJ	.	.
=8	=8	=8	=8	=8
8GL	4d	4g	4b	mir
8FJ	.	.	.	.
8EL	4c	4g	4cc	den
8CJ	.	.	.	.
8FL	4c	4g	4a	Him-
8EJ	.	.	.	.
8FL	4A	4f	4dd	-mel
8DJ	.	.	.	.
=9	=9	=9	=9	=9
8GL	4B-	2e	4dd	rau-
8E	.	.	.	.
8A	4A	.	4cc#	.
8AAJ	.	.	.	.
2D;	2A;	2f#;	2dd;	-ben,
=10	=10	=10	=10	=10
4G	4B	4g	4dd	den
4C	8B-L	4g	4ee	mir
.	16cL	.	.	.
.	16B-JJ	.	.	.
2F;	2A;	2f;	2cc;	schon
=11	=11	=11	=11	=11
8FL	4G	8dL	8bL	Got-
8EJ	.	8eJ	8ccJ	.
8BBL	4G	8dL	4dd	-tes
8CJ	.	8eJ	.	.
2D;	2d;	2f#;	2a;	Sohn
=12	=12	=12	=12	=12
4BB	8dL	4f#	4dd	bei-
.	8cJ	.	.	.
4E	4B	8gL	4dd	-ge-
.	.	8f#J	.	.
4AA	4c	8eL	4cc	-legt
.	.	8f#J	.	.
8BBL	4d	4g	8bL	im
8CJ	.	.	8aJ	.
=13	=13	=13	=13	=13
2D	4d	4g	[4a	Glau-
.	16ALL	4f#	8.aL]	.
.	16BJ	.	.	.
.	8cJ	.	.	.
.	.	.	16gJk	.
2GG;	2B;	2d;	2g;	-ben.
==|!	==|!	==|!	==|!	==|!
*-	*-	*-	*-	*-
!!!RWG: Key is interpreted using the Humdrum key tool.
!!!URL-pdf: https://s9.imslp.org/files/imglnks/usimg/6/6b/IMSLP24489-PMLP09471-CCARH_Bach_Chorales.pdf#page=169 Musedata edition
!!!URL-pdf: https://s9.imslp.org/files/imglnks/usimg/7/7a/IMSLP04155-Bach_-_BGA_253-438.pdf#page=92 	Bach-Gesellschaft Ausgabe, Band 39 (pp.175-276) Leipzig: Breitkopf und Härtel, 1892. Plate B.W. XXXIX.
!!!END: 1994/08/03
!!!EMD: Converted from MuseData to Humdrum Dec 19, 2000, by Andreas Kornstaedt using muse2kern.
!!!EED: Craig Stuart Sapp
!!!EEV: 2024/03/31
!!!filter-keyboard: satb2gs
